X:907
T:Wha Wad'na Fecht for Charlie
R:Strathspey
B:The Athole Collection
M:C
L:1/8
K:G
D|GGG>A B>A B<d|GGG>c B<d A>B|GGG>A B<A B>d|
e>gd>g B>g A:|
|:c|B>d de/f/ g>de>d|B>d de/f/ g>B A<c|B<d de/f/ g>de>d|
e<gd<g B<g A:|

